X: 11
T: JIGS: Cook in the Kitchen Set
T: Cook in the Kitchen
C: C: Trad.; S: Various
C: Set Leaders: Tania, Anton
Z: Anton Zille ed., Oleg Naumov arr.; JACKB / Jeremy / Phantom Button at The Session
N: https://thesession.org/members/26966/sets/92421
R: Jig
M: 6/8
L: 1/8
Q: 3/8=116
K: Gmaj
|:E|"G"DGG GAG|"D"FDE "F"=F3|"G"DGG GFG|"D"A2 d "C"cAG|
"G"DGG GAG|"D"FDE "F"=F2 d|"C"cAG "D"FGA|"G"BGG G2:||
|:A|"G"B3 BAG|"D"A3 AGF|"G"G3 GFG|"D"A2 d "C"cAG|
"G"B3 BAG|"D"A3 A2 d|"C"cAG "D"FGA|"G"BGG G2:||
|:B|"D"d2 e f2 g|"D"a2 g fed|"C"cAG "D/B"FGA|"G"B/c/dB "C"cAG|
"D"d2 e f2 g|"D"a2 g fed|"C"cAG "D/B"FGA|"G"BGG "(D)"G2:||
T: Blarney Pilgrim
K: Dmix
|:"G"DED DEG|"D"A2A ABc|"C"BAG AGE|"C"GEA "D"GED|
"G"DED DEG|"D"A2A ABc|"C"BAG AGE|"(D)"GED D3:||
|:"G"ded dBG|"D"AGA BGE|"G"ded dBG|"D"AGA "C"GAB|
"G"g2e dBG|"D"AGA BGE|"C"B2G AGE|"(D)"GED D3:||
|:"D"A2D "D/B"B2D|"D"A2D ABc|"Am"BAG AGE|"G/B"GEA "G"GED|
"D"ADD "D/B"BDD|"D"ADD ABc|"Am"BAG AGE|"C"GED "(D)"D3:||
T: Have a Drink With Me
K: Gmaj
|:"G"BAG EGD|"G"EGD "D"EGA|"G"BAG EGD|"C"EAG "D"ABc|
"G(Em)"BAG EGD|"G(Em)"EGD "D"EGA|"C"BAG EGD|1 "D"EGF G2A:|2 "D"EGF G2D||
|:"G"GBd e2d|"D"dgd B2A|"C"GBd edB|"D"cea aga|
"Em"bag age|"D"ged e/f/ge|"C"dBG AGA|1 "D"BGF G2D:|2 "D"BGF G2A||

